images/global/icons/experiential/adopted-budget-data.svg

<svg xmlns="http://www.w3.org/2000/svg" viewBox="0 0 276 137"><path fill="none" stroke="#1B1B1B" stroke-width="3" stroke-miterlimit="10" d="M117.8 44.7h5.1m-5.1 5.6h10.3M117.8 56h5.1m-5.1 5.7h10.3m-10.3 5.6h5.1m-5.1 5.7h10.3m-10.3 5.7h5.1m-5.1 5.6h10.3M117.8 90h5.1m-5.1 5.7h65m-65-52.5v54"/><path fill="#FFF" stroke="#1B1B1B" stroke-width="3" stroke-linecap="round" stroke-miterlimit="10" d="M126 95.3l14.5-20.4 9.8 9.4 7.7-39.1 9.5 18.3 15.3-16"/></svg>

<svg xmlns="http://www.w3.org/2000/svg" viewBox="0 0 276 137"><path fill="none" stroke="#1B1B1B" stroke-width="3" stroke-miterlimit="10" d="M117.8 44.7h5.1M117.8 50.3h10.3M117.8 56h5.1M117.8 61.7h10.3M117.8 67.3h5.1M117.8 73h10.3M117.8 78.7h5.1M117.8 84.3h10.3M117.8 90h5.1M117.8 95.7h65M117.8 43.2v54"/><path fill="#FFF" stroke="#1B1B1B" stroke-width="3" stroke-linecap="round" stroke-miterlimit="10" d="M126 95.3l14.5-20.4 9.8 9.4 7.7-39.1 9.5 18.3 15.3-16"/></svg>
